!!!!SEGMENT: pl-sa--551-a-ix-31--012_anonim--mazur.krn
!!!cenid: 18xx:511
!!!COM: Anonim
!!!COM-rism: pe30004985
!!!CDT:
!!!CNT:
!!!OTL: Mazur
!!!PDT:
!!!AGN: Secular; Mazurka
!!!SMS-siglum: PL-SA
!!!SMS-shelfmark: 551/A IX 31
!!!NIFC-rismID: 1001069482
!!!URL-scan: http://bc.bdsandomierz.pl/dlibra/publication/1307/edition/1275/content
!!!ONB-nifc: Str. 12, s. 3-4
!!!SMS-variant:
!!!SMS-altvar:
**kern	**kern	**dynam
*part1	*part1	*part1
*staff2	*staff1	*
*I"Piano	*	*
*I'pf	*	*
*clefF4	*clefG2	*
*k[f#]	*k[f#]	*
*M3/8	*M3/8	*
=1	=1	=1
*^	*	*
!	!	!LO:N:vis=4	!
!	!	!LO:TX:a:i:t=3ci Maj.	!LO:DY:rj
8G/L	4.G\	16dd\LL	p
.	.	16dd\JJ	.
8d 8B/	.	8.bb\L	.
8dJ 8B/	.	.	.
.	.	16aa\Jk	.
*v	*v	*	*
=2	=2	=2
*^	*	*
*rep	*rep	*	*
8G/L	4.G\	16.gg\LL	.
.	.	32ff#\JJk	.
8d 8B/	.	8ee\L	.
8dJ 8B/	.	8dd\J	.
*Xrep	*Xrep	*	*
=3	=3	=3	=3
8D/L	4.D\	16cc#X\LL	.
.	.	16dd\JJ	.
8c 8A 8F#/	.	8ee\L	.
8cJ 8A 8F#/	.	8ff#\J	.
=4	=4	=4	=4
8G/L	4.G\	16gg\LL	.
.	.	16aa\JJ	.
8d 8B/	.	8bb\L	.
8dJ 8B/	.	8dd\J	.
*v	*v	*	*
=5	=5	=5
*^	*	*
*rep	*rep	*	*
8G/L	4.G\	16dd\LL	.
.	.	16dd\JJ	.
8d 8B/	.	8.bb\L	.
8dJ 8B/	.	.	.
.	.	16aa\Jk	.
*Xrep	*Xrep	*	*
*v	*v	*	*
=6	=6	=6
*^	*	*
*rep	*rep	*	*
8G/L	4.G\	16gg\LL	.
.	.	16ff#\JJ	.
8d 8B/	.	8.ee\L	.
8dJ 8B/	.	.	.
.	.	16dd\Jk	.
*Xrep	*Xrep	*	*
=7	=7	=7	=7
8D/L	4.D\	16cc#X\LL	.
.	.	16dd\JJ	.
8c 8A 8F#/	.	8ee\L	.
8cJ 8A 8F#/	.	8ff#\J	.
=8	=8	=8	=8
8G/L	4.G\	16gg\LL	.
.	.	16aa\JJ	.
8d 8B/	.	8bb\L	.
8dJ 8B/	.	8cccn\J	.
*v	*v	*	*
=9	=9	=9
*^	*	*
*rep	*rep	*	*
!	!	!	!LO:DY:rj
8D/L	4.D\	16eee\LL	f
.	.	16ddd\JJ	.
8c 8A 8F#/	.	4aa 4ff#\	.
8cJ 8A 8F#/	.	.	.
*Xrep	*Xrep	*	*
*v	*v	*	*
!!LO:LB:g=original
=10	=10	=10
*^	*	*
*rep	*rep	*	*
8G/L	4.G\	16ccc\LL	.
.	.	16bb\JJ	.
8d 8B/	.	4gg 4b\	.
8dJ 8B/	.	.	.
*Xrep	*Xrep	*	*
*v	*v	*	*
=11	=11	=11
*^	*	*
*rep	*rep	*	*
8D/L	4.D\	16bb\LL	.
.	.	16aa\JJ	.
8c 8A 8F#/	.	8ee\L	.
8cJ 8A 8F#/	.	8ff#\J	.
*Xrep	*Xrep	*	*
*v	*v	*	*
=12	=12	=12
*^	*	*
*rep	*rep	*	*
8G/L	4.G\	16gg\LL	.
.	.	16aa\JJ	.
8d 8B/	.	8bb\L	.
8dJ 8B/	.	8ccc\J	.
*Xrep	*Xrep	*	*
*v	*v	*	*
=13	=13	=13
*^	*	*
*rep	*rep	*	*
8D/L	4.D\	16eee\LL	.
.	.	16ddd\JJ	.
8c 8A 8F#/	.	4aa 4ff#\	.
8cJ 8A 8F#/	.	.	.
*Xrep	*Xrep	*	*
*v	*v	*	*
=14	=14	=14
*^	*	*
*rep	*rep	*	*
8G/L	4.G\	16ccc\LL	.
.	.	16bb\JJ	.
8d 8B/	.	4gg 4b\	.
8dJ 8B/	.	.	.
*Xrep	*Xrep	*	*
=15	=15	=15	=15
8D/L	4.D\	16bb\LL	.
.	.	16aa\JJ	.
8c 8A 8F#/	.	8ee\L	.
8cJ 8A 8F#/	.	8ff#\J	.
*v	*v	*	*
=16	=16	=16
8B 8G\	16gg\LL	.
.	16bb\JJ	.
4GG/	4gg\	.
==	==	==
*-	*-	*-
!!!system-decoration: {(s1,s2)}
!!!EED: Antoni Szymański
!!!EST: 2020-12-05
!!!ENC: Marcin Jachim
!!!END: 2020-06-17
